X:1
T:Title
%%score 1 2 3
L:1/8
M:3/2
K:C
V:1 treble nm="Part_1"
V:2 treble-8 nm="Part_2"
V:3 treble-8 nm="Part_3"
V:1
 A8 G4 | A4 _B6 A2 | F4 G4 A2 F2 | F6 E2 F2 G2 | E3 D F4 z4 | F8 A2 B2 | c2 B2 G4 A2 G2 | %7
 c2 Bc d4 B2 A2 | c4 d6 c2 | c6 B2 B2 A2 | c2 B2 G4 z4 | c8 A2 B2 | c4 z4 A4 | A4 F4 A4 | %14
 A4 _B6 G2 | G4 ^F4 G2 E2 | G4 z4 z4 | G4 A4 G2 c2- | c2 B2 c2 d2 B3 A | c4 z4 G4 | G4 A6 B2 | %21
 c2 B2 A4 B2 G2 | G2 FG A4 ^F2 E2 | G4 z4 G2 A2 | B6 A2 B4 | c6 c2 c4 | z4 c4 c4 | d6 c2 c2 A2 | %28
 B2 c3 A A3 ^GG^F | A4 d6 c2 | c6 B2 B2 A2 | c4 z4 c4- | c4 A8 | z4 A4 F4 | G2 F2 _B4 A2 G2- | %35
 G2 F2 F4 G4- | G2 F2 F4 E2 D2 | F4 z4 F4 | A2 B2 c6 B2 | G4 z2 A2 G2 c2- | c2 B2 c2 G2 F4 | %41
 z4 G6 F2 | A4 _B6 A2 | G4 ^F4 G2 E2 | G12 || c4 c4 c4 | B4 G4 A4 | c4 A2 c2 B2 AG | G6 ^F2 F2 E2 | %49
 G12 || G4 A6 G2 | G6 c2 B2 A2 | c4 z4 c4 | c4 c2 c2 c4 | z4 c6 B2 | c4 d4 d4 | c6 B2 B2 A2 | %57
 c4 z4 A4 | c4 c2 c2 c4 | c4 c4 B4 | G4 A4 c4 | B4 A6 G2 | G6 ^F2 F2 E2 | G12 |] %64
V:2
[K:F] D8 G4 | D4 d4 =B2 c2 | d4 e6 c2 | c2 z2 d2 A4 G2 | B2 AB c4 z4 | c4 B4 z2 G2 | C6 E2 F2 G2 | %7
 C4 G8 | g4 d4 g2 e2 | c4 G8 | g4 e6 c2 | f2 e2 f2 c2 f2 d2 | c4 f2 e2 c4 | A4 D4 z4 | D4 d6 A2 | %15
 G4 D8 | d4 =B4 G4 | C4 z4 C4 | G4 C2 z2 G4 | g4 e4 c2 A2 | E4 D4 F2 G2 | g4 f4 z4 | d4 e4 c2 =Bc | %23
 d8 e4 | f2 g2 f2 e2 g4 | z2 c2 f6 e2 | e4 g4 c4 | f2 d2 B2 z2 c2 f2 | g2 e2 f2 e2 de d2 | %29
 e2 f2 g4 z4 | g4 c2 d2 G4 | g4 f2 e4 d2 | f4 c6 d2 | e4 f4 z4 | d2 c2 d4 e4- | e2 d2 c4 d4- | %36
 d2 c2 c4 =B4 | c4 A4 c4 | f2 e2 c4 G4 | z4 F4 c2 d2 | f4 g4 D4- | D4 d6 e2 | f2 e2 d2 G2 z2 A2 | %43
 G4 D4 c3 =B | d12 ||[K:C] z12 | z12 | z12 | z12 | z12 || z12 | z12 | z12 | z12 | z12 | z12 | z12 | %57
 z12 | z12 | z12 | z12 | z12 | z12 | z12 |] %64
V:3
 A4 c2 d2 _B4 | A4 G6 F2 | D2 F2 E4 F4 | A4 _B2 c4 B2 | G4 F8 | A4 d8 | c2 e4 c2 f2 e2 | %7
 c4 =B2 c2 d4 | c4 B4 c4 | e4 d8 | c8 A4- | A4 F6 G2 | A2 F8 A2 | c4 d6 c2 | A2 F2 G2 _B4 c2 | %15
 _B4 A8 | G8 B4 | c4 f4 e4- | e2 d2 e2 f2 d4 | c8 e4 | e4 f6 e2 | c4 d6 B2 | B4 c4 A4 | G8 c4 | %24
 d8 G4 | A4 z2 F2 A2 B2 | c8 e4 | d2 f4 e4 d2 | G2 A4 c2 B4 | A4 G4 B2 c2- | c2 e4 f2 d4 | c8 A4 | %32
 F8 A2 B2 | c4 d8 | B2 A2 G4 c4 | z2 B2 A4 B4- | B2 A2 F2 A2 G4 | F12- | F4 A4 B4 | c4 f4 e2 c2 | %40
 d4 c4 d4- | d4 _B6 A2 | F4 G2 d2 d2 c2 | _B4 A8 | G12 || c6 e4 c2 | d4 G4 z2 c2 | e2 c4 e2 d2 c2 | %48
 B2 G2 B2 c2 A4 | G12 || G4 c6 B2 | G4 c2 e2 d4 | c8 e4 | e4 e2 e2 c4 | z4 e6 d2 | e4 f8 | e4 d8 | %57
 c4 z4 c4 | c4 e2 e2 c4 | e6 c2 d4 | G4 c2 d2 e4 | d4 c8 | B2 G2 B2 c2 A4 | G12 |] %64

